static/images/platforms/dark/javascript.svg

<?xml version="1.0" encoding="utf-8"?>
<svg viewBox="0 0 128 128" xmlns="http://www.w3.org/2000/svg">
  <path d="M1.408 1.408h125.184v125.185h-125.184z" style="fill: rgb(255, 255, 255);"/>
  <path d="M116.347 96.736c-.917-5.711-4.641-10.508-15.672-14.981-3.832-1.761-8.104-3.022-9.377-5.926-.452-1.69-.512-2.642-.226-3.665.821-3.32 4.784-4.355 7.925-3.403 2.023.678 3.938 2.237 5.093 4.724 5.402-3.498 5.391-3.475 9.163-5.879-1.381-2.141-2.118-3.129-3.022-4.045-3.249-3.629-7.676-5.498-14.756-5.355l-3.688.477c-3.534.893-6.902 2.748-8.877 5.235-5.926 6.724-4.236 18.492 2.975 23.335 7.104 5.332 17.54 6.545 18.873 11.531 1.297 6.104-4.486 8.08-10.234 7.378-4.236-.881-6.592-3.034-9.139-6.949-4.688 2.713-4.688 2.713-9.508 5.485 1.143 2.499 2.344 3.63 4.26 5.795 9.068 9.198 31.76 8.746 35.83-5.176.165-.478 1.261-3.666.38-8.581zm-46.885-37.793h-11.709l-.048 30.272c0 6.438.333 12.34-.714 14.149-1.713 3.558-6.152 3.117-8.175 2.427-2.059-1.012-3.106-2.451-4.319-4.485-.333-.584-.583-1.036-.667-1.071l-9.52 5.83c1.583 3.249 3.915 6.069 6.902 7.901 4.462 2.678 10.459 3.499 16.731 2.059 4.082-1.189 7.604-3.652 9.448-7.401 2.666-4.915 2.094-10.864 2.07-17.444.06-10.735.001-21.468.001-32.237z" style="fill: rgb(28, 33, 56);"/>
</svg>

<?xml version="1.0" encoding="utf-8"?>
<svg viewBox="0 0 128 128" xmlns="http://www.w3.org/2000/svg">
  <path d="M 1.408 1.408 L 126.592 1.408 L 126.592 126.593 L 1.408 126.593 Z M 116.347 96.736 C 115.43 91.025 111.706 86.228 100.675 81.755 C 96.843 79.994 92.571 78.733 91.298 75.829 C 90.846 74.139 90.786 73.187 91.072 72.164 C 91.893 68.844 95.856 67.809 98.997 68.761 C 101.02 69.439 102.935 70.998 104.09 73.485 C 109.492 69.987 109.481 70.01 113.253 67.606 C 111.872 65.465 111.135 64.477 110.231 63.561 C 106.982 59.932 102.555 58.063 95.475 58.206 L 91.787 58.683 C 88.253 59.576 84.885 61.431 82.91 63.918 C 76.984 70.642 78.674 82.41 85.885 87.253 C 92.989 92.585 103.425 93.798 104.758 98.784 C 106.055 104.888 100.272 106.864 94.524 106.162 C 90.288 105.281 87.932 103.128 85.385 99.213 C 80.697 101.926 80.697 101.926 75.877 104.698 C 77.02 107.197 78.221 108.328 80.137 110.493 C 89.205 119.691 111.897 119.239 115.967 105.317 C 116.132 104.839 117.228 101.651 116.347 96.736 Z M 69.462 58.943 L 57.753 58.943 L 57.705 89.215 C 57.705 95.653 58.038 101.555 56.991 103.364 C 55.278 106.922 50.839 106.481 48.816 105.791 C 46.757 104.779 45.71 103.34 44.497 101.306 C 44.164 100.722 43.914 100.27 43.83 100.235 L 34.31 106.065 C 35.893 109.314 38.225 112.134 41.212 113.966 C 45.674 116.644 51.671 117.465 57.943 116.025 C 62.025 114.836 65.547 112.373 67.391 108.624 C 70.057 103.709 69.485 97.76 69.461 91.18 C 69.521 80.445 69.462 69.712 69.462 58.943 Z" style="fill: rgb(228, 228, 231);"/>
</svg>
